icons/outline/spray.svg

<!--
tags: [paint, clean, hygiene, graffiti]
unicode: "f50b"
version: "1.101"
-->
<svg
  xmlns="http://www.w3.org/2000/svg"
  width="24"
  height="24"
  viewBox="0 0 24 24"
  fill="none"
  stroke="currentColor"
  stroke-width="2"
  stroke-linecap="round"
  stroke-linejoin="round"
>
  <path d="M4 10m0 2a2 2 0 0 1 2 -2h4a2 2 0 0 1 2 2v7a2 2 0 0 1 -2 2h-4a2 2 0 0 1 -2 -2zm2 -2v-4a1 1 0 0 1 1 -1h2a1 1 0 0 1 1 1v4m5 -3h.01m2.99 2h.01m-.01 -4h.01m2.99 -2h.01m-.01 4h.01m-.01 4h.01m-11.01 -4h1" />
</svg>

<!--
tags: [paint, clean, hygiene, graffiti]
unicode: "f50b"
version: "1.101"
-->
<svg
  xmlns="http://www.w3.org/2000/svg"
  width="24"
  height="24"
  viewBox="0 0 24 24"
  fill="none"
  stroke="currentColor"
  stroke-width="2"
  stroke-linecap="round"
  stroke-linejoin="round"
>
    <path d="M4 10m0 2a2 2 0 0 1 2 -2h4a2 2 0 0 1 2 2v7a2 2 0 0 1 -2 2h-4a2 2 0 0 1 -2 -2zM6 10v-4a1 1 0 0 1 1 -1h2a1 1 0 0 1 1 1v4M15 7h.01M18 9h.01M18 5h.01M21 3h.01M21 7h.01M21 11h.01M10 7h1" />
</svg>
